kora-light/actions/scalable/office-chart-area-focus-peak-node.svg

<svg xmlns="http://www.w3.org/2000/svg" width="16" height="16" viewBox="0 0 16 16">
 <defs>
  <style id="current-color-scheme" type="text/css">
   .ColorScheme-Text { color:#444444; } .ColorScheme-Highlight { color:#4285f4; }
  </style>
 </defs>
 <path style="fill:currentColor" class="ColorScheme-Text" d="m 2,2 0,5.9960938 0,1 L 2,14 l 12,0 0,-1 -11,0 0,-1 3.005859,0 0,-0.0078 0.0078,0.0078 2,-2 1.591797,0 2,2 2.40039,0 0,-1 -1.986328,0 -2,-2 -1.414062,0 -1.00586,0 -2,2 L 3,11 3,8.9960938 l 2,0 0,-0.00781 0.0078,0.00781 L 6.003906,8 7,8 8,8 8,7 7,7 7,6 6,6 6,7.9960938 5.296875,7.2929688 4.59375,7.9960938 3,7.9960938 3,2 2,2 Z M 6,2 6,3 6,4 7,4 7,3 8,3 8,2 6,2 Z m 4,0 0,1 1,0 0,1 1,0 0,-2 -1,0 -1,0 z M 9,3.5898438 7.296875,5.2929688 8.003906,6 9,5.0039062 9.996094,6 10.703125,5.2929688 9,3.5898438 Z M 11,6 l 0,1 -1,0 0,1 2,0 0,-1 0,-1 -1,0 z m 3,0 -1,1 1,0 0,-1 z"/>
 <path style="fill:currentColor;opacity:0.5" class="ColorScheme-Text" d="M 9 5 L 7.0039062 7 L 8 7 L 8 8 L 6.0058594 8 L 5.0078125 9 L 1.9980469 9 L 1.9980469 13 L 6.9980469 13 L 8.9980469 12.992188 L 13.998047 13 L 13.998047 7 L 11.998047 7 L 11.998047 8 L 9.9980469 8 L 9.9980469 7 L 10.998047 7 L 9 5 z"/>
</svg>

<svg xmlns="http://www.w3.org/2000/svg" style="fill-rule:evenodd;clip-rule:evenodd;stroke-linejoin:round;stroke-miterlimit:2" width="100%" height="100%" version="1.1" viewBox="0 0 16 16" xml:space="preserve">
 <defs>
  <style id="current-color-scheme" type="text/css">
   .ColorScheme-Text { color:#444444; } .ColorScheme-Highlight { color:#4285f4; } .ColorScheme-NeutralText { color:#ff9800; } .ColorScheme-PositiveText { color:#4caf50; } .ColorScheme-NegativeText { color:#f44336; }
  </style>
 </defs>
 <path style="fill:currentColor;fill-opacity:0.3;" class="ColorScheme-Text" d="M2,2l0,12l12,0l0,-1l-11,0l0,-11l-1,0Z"/>
 <path style="fill:currentColor;fill-opacity:0.1;" class="ColorScheme-Text" d="M9,5l-1.996,2l0.996,0l0,1l-1.994,0l-0.998,1l-3.01,0l0,4l5,0l2,-0.008l5,0.008l0,-6l-2,0l0,1l-2,0l0,-1l1,0l-1.998,-2Z"/>
 <path style="fill:currentColor;" class="ColorScheme-Text" d="M3,7.996l0,4.004l3.006,0l-0,-0.008l0.008,0.008l2,-2l1.591,0l2,2l2.401,0l-0,-1l-1.986,0l-2,-2l-2.42,0l-2,2l-2.6,0l0,-2.004l2,0l0,-0.008l0.008,0.008l0.996,-0.996l1.996,0l0,-1l-1,0l0,-1l-1,0l0,1.996l-0.703,-0.703l-0.703,0.703l-1.594,0Zm3,-5.996l0,2l1,0l0,-1l1,0l0,-1l-2,0Zm4,0l0,1l1,0l0,1l1,0l0,-2l-2,0Zm-1,1.59l-1.703,1.703l0.707,0.707l0.996,-0.996l0.996,0.996l0.707,-0.707l-1.703,-1.703Zm2,2.41l0,1l-1,0l0,1l2,0l0,-2l-1,0Zm3,0l-1,1l1,0l0,-1Z"/>
</svg>
